pointercrate-demonlist-pages/static/images/flags/no/01.svg

<?xml version="1.0" encoding="UTF-8" standalone="no"?>
<!-- Created with Inkscape (http://www.inkscape.org/) -->
<svg
   xmlns:svg="http://www.w3.org/2000/svg"
   xmlns="http://www.w3.org/2000/svg"
   version="1.0"
   width="200"
   height="229.82137"
   id="svg2481">
  <defs
     id="defs2483" />
  <path
     d="M 0,0.00603 L 200,0.00603 L 199.96574,49.69409 C 199.96574,160.87015 99.89767,229.82136 99.89767,229.82136 C 99.89767,229.82136 0,160.87033 0,49.69409 L 0,0.00603 z"
     id="path2518"
     style="font-style:normal;font-variant:normal;font-weight:normal;font-stretch:normal;letter-spacing:normal;word-spacing:normal;text-anchor:start;fill:#f80804;fill-opacity:1;fill-rule:nonzero;stroke:none;stroke-width:0;stroke-linecap:butt;stroke-linejoin:miter;stroke-miterlimit:10.43299961;stroke-dasharray:none;stroke-dashoffset:0;stroke-opacity:1" />
  <path
     d="M 53.69789,5.6843419e-14 L 147.92593,119.78567 C 147.92593,119.78567 136.57797,110.11709 129.73137,107.50096 C 124.47223,105.4914 118.33563,104.43826 113.74574,94.73183 C 107.68414,81.9131 98.28283,74.87512 83.30522,68.86416 C 70.37391,63.67444 72.04544,46.58063 58.58077,39.97377 C 46.72786,34.15776 42.66686,37.41461 33.43004,21.2948 C 29.85723,15.05964 23.393,10.09516 23.393,10.09516 C 17.98604,6.30488 10.56992,7.90907 4.3265,4.8635 C 2.03867,3.74748 0.83596,1.2567 0.00554,0.03875 C 1.10213,6.3249 2.1968,6.87748 10.0232,10.09516 C 22.34722,15.16197 24.28753,23.51796 29.16721,34.89712 C 33.58534,45.19997 48.28613,46.29289 53.87228,56.67633 C 60.39185,68.79482 63.86049,80.54272 80.20497,87.7369 C 94.94859,94.22644 96.93399,111.39427 105.76261,118.40994 C 114.86437,125.64267 122.46483,124.87447 128.18125,135.28689 C 130.74159,139.95055 136.32792,148.92635 136.26126,149.7224 L 0.00554,45.70922 L 143.64372,188.97924 C 158.4872,171.78281 174.08478,149.53268 185.0901,122.92467 L 53.69789,5.6843419e-14 z"
     id="path3534"
     style="font-style:normal;font-variant:normal;font-weight:normal;font-stretch:normal;letter-spacing:normal;word-spacing:normal;text-anchor:start;fill:#ffe000;fill-opacity:1;fill-rule:nonzero;stroke:none;stroke-width:0;stroke-linecap:butt;stroke-linejoin:miter;stroke-miterlimit:10.43299961;stroke-dasharray:none;stroke-dashoffset:0;stroke-opacity:1" />
</svg>

<?xml version="1.0" encoding="UTF-8"?>
<!-- Created with Inkscape (http://www.inkscape.org/) -->
<svg id="svg2481" width="200" height="229.82" version="1.0" xmlns="http://www.w3.org/2000/svg">
 <path id="path2518" d="m0 0.00603h200l-0.03426 49.688c0 111.18-100.07 180.13-100.07 180.13s-99.898-68.951-99.898-180.13v-49.688z" fill="#f80804"/>
 <path id="path3534" d="m53.698 5.6843e-14 94.228 119.79s-11.348-9.6686-18.195-12.285c-5.2591-2.0096-11.396-3.0627-15.986-12.769-6.0616-12.819-15.463-19.857-30.441-25.868-12.931-5.1897-11.26-22.284-24.724-28.89-11.853-5.816-15.914-2.5592-25.151-18.679-3.5728-6.2352-10.037-11.2-10.037-11.2-5.407-3.7903-12.823-2.1861-19.066-5.2317-2.2878-1.116-3.4905-3.6068-4.321-4.8248 1.0966 6.2862 2.1913 6.8387 10.018 10.056 12.324 5.0668 14.264 13.423 19.144 24.802 4.4181 10.303 19.119 11.396 24.705 21.779 6.5196 12.118 9.9882 23.866 26.333 31.061 14.744 6.4895 16.729 23.657 25.558 30.673 9.1018 7.2327 16.702 6.4645 22.419 16.877 2.5603 4.6637 8.1467 13.639 8.08 14.436l-136.26-104.01 143.64 143.27c14.843-17.196 30.441-39.447 41.446-66.055l-131.39-122.92z" fill="#ffe000"/>
</svg>
